X:1
T:14.  Jesu, deine Passion
T:67
T:Hugo Distler
T:Siegmund von Birken (1626 - 1681)
T:14.  Jesus, to Your Passion's Hour Jesu, deine Passion Passiontide
T:Bärenreiter Verlag
T:Bärenreiter Verlag
T:Bärenreiter Verlag
T:Bärenreiter Verlag
T:Bärenreiter Verlag
T:Bärenreiter Verlag
C:Hugo Distler
Z:Siegmund von Birken
Z:(1626 - 1681)
Z:Bärenreiter Verlag
%%score [ 1 2 ( 3 4 ) ]
L:1/8
Q:1/4=66
M:4/4
K:Gmin
V:1 treble nm="Sop. 1"
V:2 treble nm="Sop. 2"
V:3 treble nm="Alto"
V:4 treble 
V:1
 d2 d2 f2 f2 | d2 d2 !breath!f4 | d2 f2 e2 d2 | d4 !breath!d2 B2- | BB c2 d2 (e2- | %5
w: 1.  Je- sus, to Your|Pas- sion's hour|I turn my re-|flec- tion; Un-|* to me from heav-|
w: 2. Je- sus, cause my|soul to face|Your ar- rest and|an- guish, vic-|* ious beat- ing, sore|
w: 3. But let me not|on- ly see|mar- tyr- dom and|tor- ment, let|_ me al- so un-|
w: 4. Je- sus, teach me|how to view|this with true re-|pent- ance; help|_ me not by sins|
w: 5. If my sins should|threat- en me|with the fear of|judg- ment, Je-|* sus, help my con-|
w: 6. Grant, o Lord, that|I may bear|all- ways my cross|glad- ly, that|_ Your hum- ble mein|
 ed) c2 !breath!d4 | _A3 B A2 A2 | G4 !breath!G4 | e2 c2 _A2 A2 | d2 B2 !breath!G2 =A2- | %10
w: * * en pour|Cour- age and de-|vo- tion.|Show to me Your|im- age now in|
w: _ _ dis- grace,|shame- ful cross You|bore there,|and your scourg- ing,|thorn- y crown, gor-|
w: * * der- stand|cause, ef- fect, and|rea- son.|How I was the|cause, in truth, I|
w: _ _ a- new|to re- peat Your|sen- tence.|Shall I joy in|this a- lone, its|
w: * * science be|on the mid- dle|pave- ment.|To Your Pas- sion,|You a- lone, may,|
w: _ _ I wear,|pa- tience fac- ing|mis- 'ry,|that I give You|love for love. And|
 A2 c2 d2 e2 | d4 !breath!d2 B2- | BB c2 d2 (e2- | ed) c2 !breath!d4 | _A3 B A2 A2 | G4 G4- | %16
w: _ my heart’s de-|pic- tion as|_ Your suf- f'ring here|_ _ be- low|pur- chased our sal-|va- tion.|
w: * y nail and|spear wounds, and|_ your death as God's|_ _ own Son,|bind- ing me close|to You.|
w: _ and all my|sin- ning. All|_ my sins have mar-|* * tyred You,|grace to my soul|bring- ing.|
w: _ grim truth a-|void- ing: that|_ You must for me|_ _ a- tone|with such pain and|suff- 'ring?|
w: _ in faith, my|heart cleave. If|_ I'm loved by His|_ _ dear Son,|how can God re-|ject me?|
w: _ may this lame|blath- er —bet-|* ter thanks in heav'n|_ _ I'll give—|Je- sus, give You|pleas- ure.|
 G4 z4 |] %17
w: _|
w: _|
w: _|
w: _|
w: _|
w: _|
V:2
 d2 d2 d2 c2 | (dc) B2 !breath!A4 | G2 F2 G3 A | (c2 B2) !breath!A4 | G2 A2 B2 G2 | %5
w: 1.  Je- sus, to Your|Pas- * sion's hour|I turn my re-|flec- * tion;|Un- to me from|
w: 2. Je- sus, cause my|soul _ to face|Your ar- rest and|an- * guish,|vic- ious beat- ing,|
w: 3. But let me not|on- * ly see|mar- tyr- dom and|tor- * ment,|let me al- so|
w: 4. Je- sus, teach me|how _ to view|this with true re-|pent- * ance;|help me not by|
w: 5. If my sins should|threat- * en me|with the fear of|judg- * ment,|Je- sus, help my|
w: 6. Grant, o Lord, that|I _ may bear|all- ways my cross|glad- * ly,|that Your hum- ble|
 (GF) E2 !breath!D4 | C2 B,2 C2 D2 | (F2 E2) !breath!D4 | G2 G2 G2 F2- | F2 ED !breath!C2 F2- | %10
w: heav- * en pour|Cour- age and de-|vo- * tion.|Show to me Your|_ im- age now in|
w: sore _ dis- grace,|shame- ful cross You|bore _ there,|and your scourg- ing,|_ thorn- y crown, gor-|
w: un- * der- stand|cause, ef- fect, and|rea- * son.|How I was the|_ cause, in truth, I|
w: sins _ a- new|to re- peat Your|sen- * tence.|Shall I joy in|_ this a- lone, its|
w: con- * science be|on the mid- dle|pave- * ment.|To Your Pas- sion,|_ You a- lone, may,|
w: mein _ I wear,|pa- tience fac- ing|mis- 'ry, _|that I give You|_ love for love. And|
 FF (G3 A) B2 | (c2 B2) !breath!A4 | G2 A2 B2 G2 | (GF) E2 !breath!D4 | C2 B,2 C2 D2 | %15
w: _ my heart’s _ de-|pic- * tion|as Your suf- f'ring|here _ be- low|pur- chased our sal-|
w: * y nail _ and|spear _ wounds,|and your death as|God's _ own Son,|bind- ing me close|
w: _ and all _ my|sin- * ning.|All my sins have|mar- * tyred You,|grace to my soul|
w: _ grim truth _ a-|void- * ing:|that You must for|me _ a- tone|with such pain and|
w: _ in faith, _ my|heart _ cleave.|If I'm loved by|His _ dear Son,|how can God re-|
w: _ may this _ lame|blath- * er|—bet- ter thanks in|heav'n _ I'll give—|Je- sus, give You|
 (F2 E2) D4- | D4 z4 |] %17
w: va- * tion.|_|
w: to _ You.|_|
w: bring- * ing.|_|
w: suff- * 'ring?|_|
w: ject _ me?|_|
w: pleas- * ure.|_|
V:3
 G2 A2 B3 A | G2 G2 !breath!D4 | B2 A2 G2 F2 | G4 !breath!F2 E2- | E2 A2 A2 D2 | %5
w: 1.  Je- sus, to Your|Pas- sion's hour|I turn my re-|flec- tion; Un-|* to me from|
w: 2. Je- sus, cause my|soul to face|Your ar- rest and|an- guish, vic-|* ious beat- ing,|
w: 3. But let me not|on- ly see|mar- tyr- dom and|tor- ment, let|_ me al- so|
w: 4. Je- sus, teach me|how to view|this with true re-|pent- ance; help|_ me not by|
w: 5. If my sins should|threat- en me|with the fear of|judg- ment, Je-|* sus, help my|
w: 6. Grant, o Lord, that|I may bear|all- ways my cross|glad- ly, that|_ Your hum- ble|
 B2 A2 !breath!G2 F2- | !breath!F F2 E F2 F2 | C4 !breath!G4 | C2 F2 E2 D2 | DC !breath!D4 D2- | %10
w: heav- en pour, pour|_ Cour- age and de-|vo- tion.|Show to me Your|im- age now in|
w: sore dis- grace, shame,|_ shame- ful cross You|bore there,|and your scourg- ing,|thorn- y crown, gor-|
w: un- der- stand cause,|_ cause, ef- fect, and|rea- son.|How I was the|cause, in truth, I|
w: sins a- new to,|_ to re- peat Your|sen- tence.|Shall I joy in|this a- lone, its|
w: con- science be on,|_ on the mid- dle|pave- ment.|To Your Pas- sion,|You a- lone, may,|
w: mein I wear, wear,|_ pa- tience fac- ing|mis- 'ry,|that I give You|love for love. And|
 D2 D2 G4 | G2 G2 !breath!F2 E2- | E2 A2 A2 D2 | B2 A2 !breath!G2 F2 | F F2 E F4 | %15
w: _ my heart’s|de- pic- tion as|_ Your suf- f'ring|here be- low pur-|chased our sal- va-|
w: * y nail|and spear wounds, and|_ your death as|God's own Son, bind-|ing me close to|
w: _ and all|my sin- ning. All|_ my sins have|mar- tyred You, grace|to my soul bring-|
w: _ grim truth|a- void- ing: that|_ You must for|me a- tone with|such pain and suff-|
w: _ in faith,|my heart cleave. If|_ I'm loved by|His dear Son, how|can God re- ject|
w: _ may this|lame blath- er —bet-|* ter thanks in|heav'n I'll give— Je-|sus, give You pleas-|
 !breath!C2 (CB,) C4 | =B,4 z4 |] %17
w: tion, sal- * va-|tion.|
w: You, close _ to|You.|
w: ing, soul _ bring-|ing.|
w: 'ring, pain and suff-|'ring?|
w: me, re- * ject|me?|
w: ure, give You pleas-|ure.|
V:4
 x8 | x8 | x8 | x8 | x8 | x8 | x8 | x8 | x8 | x8 | x8 | x8 | x8 | x8 | x8 | C2 CB, G,4 | G,4 x4 |] %17

